public/images/icons/sports.svg

<svg width="18" height="18" viewBox="0 0 18 18" fill="none" xmlns="http://www.w3.org/2000/svg">
<path d="M9 1.5C13.1423 1.5 16.5 4.85775 16.5 9C16.5 13.1423 13.1423 16.5 9 16.5C4.85775 16.5 1.5 13.1423 1.5 9C1.5 4.85775 4.85775 1.5 9 1.5ZM10.2525 12H7.7475L6.7125 13.4227L7.128 14.7023C7.73226 14.9002 8.36416 15.0007 9 15C9.65325 15 10.2825 14.895 10.872 14.7023L11.2867 13.4227L10.2517 12H10.2525ZM3.9705 8.154L3.0015 8.85675L3 9C3 10.2975 3.41175 11.4982 4.1115 12.48H5.544L6.53625 11.115L5.76525 8.7375L3.9705 8.154ZM14.0295 8.154L12.2347 8.7375L11.4637 11.115L12.4552 12.48H13.8878C14.6129 11.4646 15.0018 10.2477 15 9L14.9977 8.8575L14.0295 8.154ZM9 7.152L7.242 8.4285L7.914 10.5H10.0852L10.7572 8.4285L9 7.152ZM10.7183 3.24975L9.75 3.95475V5.8425L11.7705 7.31025L13.4498 6.765L13.8652 5.48775C13.091 4.4159 11.9849 3.62929 10.7183 3.24975ZM7.281 3.24975C6.01456 3.62963 4.90871 4.41651 4.13475 5.4885L4.55025 6.765L6.2295 7.31025L8.25 5.8425V3.95475L7.281 3.24975Z" fill="#B1B1B1"/>
</svg>

<svg width="18" height="18" fill="none" xmlns="http://www.w3.org/2000/svg"><path d="M9 1.5a7.5 7.5 0 110 15 7.5 7.5 0 010-15zM10.252 12H7.747l-1.034 1.423.415 1.28a6.015 6.015 0 003.744 0l.415-1.28L10.252 12zM3.97 8.154l-.969.703L3 9c0 1.297.412 2.498 1.112 3.48h1.432l.992-1.365-.77-2.377-1.796-.584zm10.06 0l-1.795.584-.771 2.377.991 1.365h1.433A5.973 5.973 0 0015 9l-.002-.143-.968-.703zM9 7.152L7.242 8.428l.672 2.072h2.171l.672-2.072L9 7.152zm1.718-3.902l-.968.705v1.888l2.02 1.467 1.68-.545.415-1.277a6.01 6.01 0 00-3.147-2.238zm-3.437 0a6.01 6.01 0 00-3.146 2.239l.415 1.276 1.68.545 2.02-1.467V3.955l-.969-.705z" fill="#B1B1B1"/></svg>
